src/assets/filled/Message.svg

<?xml version="1.0" encoding="UTF-8"?>
<svg width="24" height="24" viewBox="0 0 24 24" xmlns="http://www.w3.org/2000/svg">
 <path d="m17 2h-10c-2.76 0-5 2.23-5 4.98v6.98c0 2.75 2.24 4.98 5 4.98h1.5c0.27 0 0.63 0.18 0.8 0.4l1.5 1.99c0.66 0.88 1.74 0.88 2.4 0l1.5-1.99c0.19-0.25 0.49-0.4 0.8-0.4h1.5c2.76 0 5-2.23 5-4.98v-6.98c0-2.75-2.24-4.98-5-4.98zm-9 10c-0.56 0-1-0.45-1-1s0.45-1 1-1 1 0.45 1 1-0.44 1-1 1zm4 0c-0.56 0-1-0.45-1-1s0.45-1 1-1 1 0.45 1 1-0.44 1-1 1zm4 0c-0.56 0-1-0.45-1-1s0.45-1 1-1 1 0.45 1 1-0.44 1-1 1z"/>
</svg>

<svg width="24" height="24" viewBox="0 0 24 24"  xmlns="http://www.w3.org/2000/svg">
<path d="M17 2H7C4.24 2 2 4.23 2 6.98V12.96V13.96C2 16.71 4.24 18.94 7 18.94H8.5C8.77 18.94 9.13 19.12 9.3 19.34L10.8 21.33C11.46 22.21 12.54 22.21 13.2 21.33L14.7 19.34C14.89 19.09 15.19 18.94 15.5 18.94H17C19.76 18.94 22 16.71 22 13.96V6.98C22 4.23 19.76 2 17 2ZM8 12C7.44 12 7 11.55 7 11C7 10.45 7.45 10 8 10C8.55 10 9 10.45 9 11C9 11.55 8.56 12 8 12ZM12 12C11.44 12 11 11.55 11 11C11 10.45 11.45 10 12 10C12.55 10 13 10.45 13 11C13 11.55 12.56 12 12 12ZM16 12C15.44 12 15 11.55 15 11C15 10.45 15.45 10 16 10C16.55 10 17 10.45 17 11C17 11.55 16.56 12 16 12Z" />
</svg>
